svgs/sharp-solid/card-club.svg

<svg xmlns="http://www.w3.org/2000/svg" viewBox="0 0 384 512"><!--! Font Awesome Pro 6.6.0 by @fontawesome - https://fontawesome.com License - https://fontawesome.com/license (Commercial License) Copyright 2024 Fonticons, Inc. --><path d="M384 0L0 0 0 512l384 0L384 0zM256 192c0 5.6-.7 11.1-2.1 16.3c28.2 2.9 50.1 26.8 50.1 55.7c0 30.9-25.1 56-56 56c-15.7 0-29.8-6.4-40-16.8l0 32.8 16 0 16 0 0 32-16 0-16 0-32 0-16 0-16 0 0-32 16 0 16 0 0-32.8c-10.2 10.4-24.3 16.8-40 16.8c-30.9 0-56-25.1-56-56c0-28.9 21.9-52.7 50.1-55.7c-1.4-5.2-2.1-10.7-2.1-16.3c0-35.3 28.7-64 64-64s64 28.7 64 64z"/></svg>

<svg xmlns="http://www.w3.org/2000/svg" viewBox="0 0 384 512"><!--! Font Awesome Pro 6.4.2 by @fontawesome - https://fontawesome.com License - https://fontawesome.com/license (Commercial License) Copyright 2023 Fonticons, Inc. --><path d="M384 0H0V512H384V0zM256 192c0 5.6-.7 11.1-2.1 16.3c28.2 2.9 50.1 26.8 50.1 55.7c0 30.9-25.1 56-56 56c-15.7 0-29.8-6.4-40-16.8V336h16 16v32H224 208 176 160 144V336h16 16V303.2c-10.2 10.4-24.3 16.8-40 16.8c-30.9 0-56-25.1-56-56c0-28.9 21.9-52.7 50.1-55.7c-1.4-5.2-2.1-10.7-2.1-16.3c0-35.3 28.7-64 64-64s64 28.7 64 64z"/></svg>
